src/Resource_Files/fluent/edit-copy.svg

<svg clip-rule="evenodd" fill-rule="evenodd" stroke-linejoin="round" stroke-miterlimit="2" viewBox="0 0 16 16" xmlns="http://www.w3.org/2000/svg"><path d="m5 4.268v10.232c0 1.381 1.119 2.5 2.5 2.5h6.232c-.345.598-.992 1-1.732 1h-4.5c-1.933 0-3.5-1.567-3.5-3.5v-8.5c0-.74.402-1.387 1-1.732zm9-2.268c1.054 0 1.918.816 1.995 1.851l.005.149v10c0 1.054-.816 1.918-1.851 1.995l-.149.005h-6c-1.054 0-1.918-.816-1.995-1.851l-.005-.149v-10c0-1.054.816-1.918 1.851-1.995l.149-.005zm0 1h-6c-.513 0-.936.386-.993.883l-.007.117v10c0 .513.386.936.883.993l.117.007h6c.513 0 .936-.386.993-.883l.007-.117v-10c0-.513-.386-.936-.883-.993z" fill="#1abc9c" fill-rule="nonzero" transform="translate(-2 -2)"/></svg>

<?xml version="1.0" encoding="UTF-8" standalone="no"?>
<!DOCTYPE svg PUBLIC "-//W3C//DTD SVG 1.1//EN" "http://www.w3.org/Graphics/SVG/1.1/DTD/svg11.dtd">
<svg width="100%" height="100%" viewBox="0 0 16 16" version="1.1" xmlns="http://www.w3.org/2000/svg" xmlns:xlink="http://www.w3.org/1999/xlink" xml:space="preserve" xmlns:serif="http://www.serif.com/" style="fill-rule:evenodd;clip-rule:evenodd;stroke-linejoin:round;stroke-miterlimit:2;">
    <g id="copy" transform="matrix(1,0,0,1,-2,-2)">
        <path d="M5,4.268L5,14.5C5,15.881 6.119,17 7.5,17L13.732,17C13.387,17.598 12.74,18 12,18L7.5,18C5.567,18 4,16.433 4,14.5L4,6C4,5.26 4.402,4.613 5,4.268ZM14,2C15.054,2 15.918,2.816 15.995,3.851L16,4L16,14C16,15.054 15.184,15.918 14.149,15.995L14,16L8,16C6.946,16 6.082,15.184 6.005,14.149L6,14L6,4C6,2.946 6.816,2.082 7.851,2.005L8,2L14,2ZM14,3L8,3C7.487,3 7.064,3.386 7.007,3.883L7,4L7,14C7,14.513 7.386,14.936 7.883,14.993L8,15L14,15C14.513,15 14.936,14.614 14.993,14.117L15,14L15,4C15,3.487 14.614,3.064 14.117,3.007L14,3Z" style="fill:rgb(26,188,156);fill-rule:nonzero;"/>
    </g>
</svg>
